home/.icons/Gruvbox-Plus-Dark/apps/16/tootle.svg

<svg width="16" height="16" version="1.1" xmlns="http://www.w3.org/2000/svg">
  <defs>
    <style id="current-color-scheme" type="text/css">.ColorScheme-Text { color:#ebdbb2; } .ColorScheme-Highlight { color:#458588; }</style>
  </defs>
  <path class="ColorScheme-Text" d="m15.98 6.645-2.121-3.99c-0.159-0.1987-0.3881-0.09636-0.447 0.051l-1.147 2.701-3.769 1.932-0.176-0.332c-0.1-0.188-0.335-0.26-0.527-0.162-0.19 0.097-0.265 0.329-0.165 0.517l0.176 0.331-0.651 0.334-0.563-1.058 1.01-0.517c0.259-0.134 0.36-0.448 0.224-0.702-0.1157-0.2258-0.4313-0.3655-0.715-0.22l-2.981 1.527c-0.26 0.134-0.361 0.448-0.225 0.703 0.1201 0.2288 0.4353 0.3641 0.715 0.22l1.01-0.517 0.562 1.058-0.719 0.368-0.176-0.331c-0.1-0.188-0.337-0.26-0.527-0.163-0.187 0.09726-0.2677 0.3255-0.165 0.517l0.176 0.332c-0.00722-0.02454-3.748 1.919-3.748 1.919-0.2985-0.06417-0.5975-0.1274-0.896-0.191-0.08265-0.01653-0.1641 0.06543-0.13 0.153l0.975 1.834c0.02474 0.05187 0.1672 0.06523 0.203-0.017 0.1207-0.282 0.2401-0.5646 0.36-0.847l1.044-0.535c4e-3 0.291 0.076 0.586 0.222 0.861 0.501 0.942 1.685 1.306 2.644 0.815l1.139-0.585 0.205 0.385c0.099 0.188 0.336 0.26 0.527 0.163 0.19-0.098 0.265-0.33 0.165-0.517l-0.205-0.385 0.719-0.368 0.597 1.122c0.139 0.262 0.467 0.363 0.733 0.226 0.2526-0.128 0.3753-0.4459 0.23-0.719l-0.597-1.123 0.652-0.333 0.205 0.384c0.099 0.187 0.335 0.261 0.526 0.162 0.192-0.098 0.265-0.33 0.166-0.516l-0.205-0.385 1.51-0.775c0.79516-0.40894 1.3794-1.5189 0.813-2.585-0.146-0.275-0.351-0.501-0.592-0.671l0.712-0.365c0.9819 0.2089 1.964 0.4176 2.946 0.626 0.1923 0.03561 0.3524-0.1503 0.281-0.332zm-11.03 5.652c-0.432 0.221-0.963 0.057-1.188-0.366s-0.058-0.945 0.372-1.165l1.141-0.585 0.814 1.532c-0.38 0.194-0.7595 0.3893-1.139 0.584zm1.831-0.939-0.814-1.531c0.2397-0.1226 0.4793-0.2453 0.719-0.368l0.814 1.531c-0.2391 0.1238-0.4793 0.2454-0.719 0.368zm1.683-0.862-0.815-1.531 0.652-0.334 0.814 1.531zm2.672-1.37-1.329 0.682-0.815-1.531c0.4524-0.2339 0.9064-0.4644 1.36-0.696 0.421-0.184 0.921-0.016 1.137 0.39 0.191 0.358 0.1 0.787-0.193 1.044-0.07019 0.06299-0.1469 0.1062-0.16 0.111z" fill="currentColor"/>
</svg>

<svg xmlns="http://www.w3.org/2000/svg" style="isolation:isolate" width="16" height="16" viewBox="0 0 16 16">
 <defs>
  <style id="current-color-scheme" type="text/css">
   .ColorScheme-Text { color:#ebdbb2; } .ColorScheme-Highlight { color:#458588; }
  </style>
  <linearGradient id="arrongin" x1="0%" x2="0%" y1="0%" y2="100%">
   <stop offset="0%" style="stop-color:#d79921; stop-opacity:1"/>
   <stop offset="100%" style="stop-color:#b57614; stop-opacity:1"/>
  </linearGradient>
  <linearGradient id="aurora" x1="0%" x2="0%" y1="0%" y2="100%">
   <stop offset="0%" style="stop-color:#83a598; stop-opacity:1"/>
   <stop offset="100%" style="stop-color:#b16286; stop-opacity:1"/>
  </linearGradient>
  <linearGradient id="fitdance" x1="0%" x2="0%" y1="0%" y2="100%">
   <stop offset="0%" style="stop-color:#8ec07c; stop-opacity:1"/>
   <stop offset="100%" style="stop-color:#458588; stop-opacity:1"/>
  </linearGradient>
  <linearGradient id="oomox" x1="0%" x2="0%" y1="0%" y2="100%">
   <stop offset="0%" style="stop-color:#458588; stop-opacity:1"/>
   <stop offset="100%" style="stop-color:#928374; stop-opacity:1"/>
  </linearGradient>
  <linearGradient id="rainblue" x1="0%" x2="0%" y1="0%" y2="100%">
   <stop offset="0%" style="stop-color:#b8bb26; stop-opacity:1"/>
   <stop offset="100%" style="stop-color:#076678; stop-opacity:1"/>
  </linearGradient>
  <linearGradient id="sunrise" x1="0%" x2="0%" y1="0%" y2="100%">
   <stop offset="0%" style="stop-color: #fe8019; stop-opacity:1"/>
   <stop offset="100%" style="stop-color: #fabd2f; stop-opacity:1"/>
  </linearGradient>
  <linearGradient id="telinkrin" x1="0%" x2="0%" y1="0%" y2="100%">
   <stop offset="0%" style="stop-color: #83a598; stop-opacity:1"/>
   <stop offset="100%" style="stop-color: #83a598; stop-opacity:1"/>
  </linearGradient>
  <linearGradient id="60spsycho" x1="0%" x2="0%" y1="0%" y2="100%">
   <stop offset="0%" style="stop-color: #fb4934; stop-opacity:1"/>
   <stop offset="25%" style="stop-color: #fabd2f; stop-opacity:1"/>
   <stop offset="50%" style="stop-color: #fe8019; stop-opacity:1"/>
   <stop offset="100%" style="stop-color: #689d6a; stop-opacity:1"/>
  </linearGradient>
  <linearGradient id="90ssummer" x1="0%" x2="0%" y1="0%" y2="100%">
   <stop offset="0%" style="stop-color: #b16286; stop-opacity:1"/>
   <stop offset="20%" style="stop-color: #8ec07c; stop-opacity:1"/>
   <stop offset="50%" style="stop-color: #fabd2f; stop-opacity:1"/>
   <stop offset="100%" style="stop-color: #458588; stop-opacity:1"/>
  </linearGradient>
  <linearGradient id="cyberneon" x1="0%" x2="0%" y1="0%" y2="100%">
    <stop offset="0" style="stop-color:#83a598; stop-opacity:1"/>
    <stop offset="1" style="stop-color:#b16286; stop-opacity:1"/>
  </linearGradient>
 </defs>
 <path style="fill:currentColor" class="ColorScheme-Text" d="M 15.983 6.645 L 13.862 2.655 C 13.858 2.65 13.855 2.646 13.852 2.641 C 13.837 2.623 13.82 2.607 13.802 2.593 C 13.726 2.54 13.623 2.528 13.534 2.574 C 13.482 2.601 13.444 2.643 13.422 2.692 C 13.418 2.696 13.417 2.701 13.415 2.706 L 12.268 5.407 L 9.992 6.573 C 9.977 6.58 9.962 6.588 9.948 6.596 L 9.174 6.993 L 8.499 7.339 L 8.323 7.007 C 8.223 6.819 7.988 6.747 7.796 6.845 C 7.606 6.942 7.531 7.174 7.631 7.362 L 7.807 7.693 L 7.156 8.027 L 6.593 6.969 L 7.603 6.452 C 7.862 6.318 7.963 6.004 7.827 5.75 C 7.806 5.709 7.779 5.671 7.748 5.639 L 7.702 5.595 C 7.542 5.462 7.309 5.429 7.112 5.53 L 4.131 7.057 C 3.871 7.191 3.77 7.505 3.906 7.76 C 3.927 7.8 3.953 7.836 3.983 7.868 C 3.998 7.885 4.015 7.901 4.033 7.915 C 4.193 8.048 4.425 8.081 4.621 7.98 L 5.631 7.463 L 6.193 8.521 L 5.474 8.889 L 5.298 8.558 C 5.198 8.37 4.961 8.298 4.771 8.395 C 4.721 8.421 4.679 8.456 4.645 8.497 C 4.553 8.612 4.532 8.774 4.606 8.912 L 4.782 9.244 L 3.687 9.805 C 3.672 9.812 3.657 9.82 3.642 9.827 L 1.034 11.163 L 0.145 10.973 C 0.142 10.972 0.14 10.972 0.138 10.972 C 0.113 10.967 0.087 10.971 0.063 10.983 C 0.01 11.01 -0.013 11.071 0.008 11.125 L 0.983 12.959 C 0.986 12.962 0.988 12.966 0.991 12.969 L 0.993 12.97 L 1.007 12.984 C 1.041 13.012 1.091 13.018 1.134 12.996 C 1.158 12.984 1.176 12.965 1.186 12.942 C 1.187 12.94 1.188 12.938 1.189 12.936 L 1.546 12.095 L 2.59 11.56 C 2.594 11.851 2.666 12.146 2.812 12.421 C 3.313 13.363 4.497 13.727 5.456 13.236 C 5.471 13.228 5.486 13.22 5.5 13.212 L 6.595 12.651 L 6.8 13.036 C 6.899 13.224 7.136 13.296 7.327 13.199 C 7.517 13.101 7.592 12.869 7.492 12.682 L 7.287 12.297 L 8.006 11.929 L 8.603 13.051 C 8.742 13.313 9.07 13.414 9.336 13.277 C 9.411 13.239 9.473 13.186 9.519 13.125 C 9.641 12.966 9.666 12.746 9.566 12.558 L 8.969 11.435 L 9.621 11.102 L 9.826 11.486 C 9.925 11.673 10.161 11.747 10.352 11.648 C 10.544 11.55 10.617 11.318 10.518 11.132 L 10.313 10.747 L 11.823 9.972 C 11.928 9.918 12.025 9.855 12.115 9.785 C 12.839 9.224 13.078 8.219 12.636 7.387 C 12.49 7.112 12.285 6.886 12.044 6.716 L 12.756 6.351 L 15.686 6.974 C 15.691 6.975 15.696 6.977 15.702 6.977 C 15.756 6.987 15.813 6.98 15.865 6.954 C 15.979 6.895 16.029 6.762 15.983 6.645 L 15.983 6.645 Z M 4.976 12.286 C 4.969 12.291 4.963 12.293 4.956 12.297 C 4.524 12.518 3.993 12.354 3.768 11.931 C 3.543 11.508 3.71 10.986 4.14 10.766 L 5.281 10.181 L 6.095 11.713 L 4.976 12.286 Z M 6.787 11.358 L 5.973 9.827 L 6.02 9.803 L 6.692 9.459 L 7.506 10.99 L 7.353 11.069 L 6.787 11.358 Z M 8.47 10.496 L 7.655 8.965 L 8.307 8.631 L 9.121 10.162 L 8.47 10.496 Z M 11.172 9.11 C 11.162 9.116 11.153 9.122 11.142 9.126 L 9.813 9.808 L 8.998 8.277 L 9.99 7.768 L 10.307 7.606 C 10.324 7.597 10.341 7.589 10.358 7.581 C 10.779 7.397 11.279 7.565 11.495 7.971 C 11.686 8.329 11.595 8.758 11.302 9.015 C 11.263 9.05 11.219 9.082 11.172 9.11 L 11.172 9.11 Z"/>
</svg>
